symbols/web/remove_from_queue/materialsymbolssharp/remove_from_queue_wght600grad200_40px.svg

<svg xmlns="http://www.w3.org/2000/svg" height="40" width="40"><path d="M12.667 20.25h14.666v-4H12.667Zm.208 16.167v-3.709H2.25V3.917h35.5v28.791H27.125v3.709Zm-6.583-7.709h27.416V7.917H6.292Zm0 0V7.917v20.791Z"/></svg>

<svg xmlns="http://www.w3.org/2000/svg" height="40" width="40"><path d="M12.667 20.25H27.333V16.25H12.667ZM12.875 36.417V32.708H2.25V3.917H37.75V32.708H27.125V36.417ZM6.292 28.708H33.708V7.917H6.292ZM6.292 28.708V7.917V28.708Z"/></svg>
